X: 2
T: O'Keefe's
R: slide
M: 12/8
L: 1/8
K: Edor
|: E2B B2A FEF A2B | E2B B2A F2D DEF |
E2B B2A FEF A2B | FEF B2F F2E E2D :|
|: B2e e2f e2d B2A | B2e e2f e2d B2c |
d2e dcB ABA FED | FEF B2F F2E E2D :|


Tune 53	Setting 22653

